public/svg/icon/bcbc.svg

<svg xmlns="http://www.w3.org/2000/svg" xmlns:xlink="http://www.w3.org/1999/xlink" width="32" height="32" viewBox="0 0 32 32"><defs><linearGradient id="bcbc-c" x1="50%" x2="50%" y1="0%" y2="100%"><stop offset="0%" stop-color="#FFF" stop-opacity=".5"/><stop offset="100%" stop-opacity=".5"/></linearGradient><circle id="bcbc-b" cx="16" cy="15" r="15"/><filter id="bcbc-a" width="111.7%" height="111.7%" x="-5.8%" y="-4.2%" filterUnits="objectBoundingBox"><feOffset dy=".5" in="SourceAlpha" result="shadowOffsetOuter1"/><feGaussianBlur in="shadowOffsetOuter1" result="shadowBlurOuter1" stdDeviation=".5"/><feComposite in="shadowBlurOuter1" in2="SourceAlpha" operator="out" result="shadowBlurOuter1"/><feColorMatrix in="shadowBlurOuter1" values="0 0 0 0 0 0 0 0 0 0 0 0 0 0 0 0 0 0 0.199473505 0"/></filter></defs><g fill="none" fill-rule="evenodd"><g fill-rule="nonzero"><use fill="#000" filter="url(#bcbc-a)" xlink:href="#bcbc-b"/><use fill="#004AB5" fill-rule="evenodd" xlink:href="#bcbc-b"/><use fill="url(#bcbc-c)" fill-rule="evenodd" style="mix-blend-mode:soft-light" xlink:href="#bcbc-b"/><circle cx="16" cy="15" r="14.5" stroke="#000" stroke-linejoin="square" stroke-opacity=".097"/></g><path fill="#FFF" fill-rule="nonzero" d="M12.7032386,7.30655888 C10.6277844,8.08896242 8.95741653,9.67816143 8.07267989,11.712103 C6.32500546,15.7298469 8.04169187,20.4118727 11.9722551,22.3476574 C15.9027914,24.2834388 20.6607528,22.7901995 22.7803334,18.9556487 L15.5980192,14.9855638 L18.5117214,7.31367208 C16.6411721,6.60326733 14.5755224,6.60073769 12.7032386,7.30655888 Z M13.2153571,8.78120852 C14.7314006,8.20967595 16.4040217,8.21171841 17.9186648,8.78695176 L15.5593498,14.9990894 L21.3750195,18.2137951 C19.6587171,21.3186974 15.8060917,22.5277852 12.6234497,20.960342 C9.4407951,19.3929023 8.05073269,15.6017956 9.46580756,12.3485285 C10.1822152,10.7015756 11.5347811,9.41475245 13.2153571,8.78122959 L13.2153571,8.78120852 Z M15.9675365,4.66994514 C17.0836624,4.71405819 18.1852608,4.93877875 19.2294839,5.33536609 L15.5593287,14.9990683 L24.6063222,19.9999764 C21.9364106,24.8300898 15.943126,26.711005 10.992099,24.272625 C6.04107121,21.8342377 3.87869042,15.9366462 6.08008059,10.875781 C7.19452399,8.31371033 9.29860922,6.3118646 11.9129679,5.32631916 C13.2069789,4.83852213 14.5857114,4.61532565 15.9675313,4.66994514 L15.9675365,4.66994514 Z M23.024542,8.2430558 C23.2724711,8.24288719 23.5025182,8.27261507 23.7146273,8.3325556 C24.3388771,8.50427339 24.7608466,8.89203736 24.9806348,9.49590547 C25.1140779,9.86254589 25.1432994,10.222384 25.0682425,10.5753565 C25.0003669,10.9257104 24.8383599,11.2410883 24.5822322,11.521559 C25.0632796,11.5011678 25.4848703,11.6082293 25.847042,11.8427698 C26.2065966,12.0701233 26.4713914,12.4174685 26.6414647,12.8847475 C26.8821921,13.5461324 26.8091997,14.1507592 26.4224268,14.6986017 C26.0402206,15.2366332 25.3566805,15.6848699 24.371797,16.0433433 L20.4681709,17.4641276 L17.7208337,9.91580527 L21.4087666,8.57348742 C22.0126411,8.35370023 22.5512148,8.24353528 23.024542,8.2430558 Z M22.4526422,9.8045391 C22.2286814,9.805066 21.9684439,9.85955307 21.6718969,9.96748922 L19.935772,10.5994044 L20.5833625,12.378699 L22.3195348,11.7467786 C22.750869,11.5897824 23.0504288,11.3952655 23.2183381,11.1631857 C23.3862464,10.9311058 23.416575,10.6677438 23.3092964,10.3729993 C23.2020189,10.0782496 23.0107793,9.899466 22.7355883,9.83680139 C22.6487767,9.81498759 22.5544447,9.80423876 22.4526422,9.8045549 L22.4526422,9.8045391 Z M23.9169013,12.7319086 C23.6807901,12.7340163 23.4033492,12.7932613 23.0845621,12.9092907 L21.0464679,13.6510599 L21.7254777,15.5166349 L23.7635298,14.7748183 C24.2236212,14.6073631 24.5412175,14.4063284 24.716308,14.1716299 C24.8986002,13.9343179 24.932243,13.6575039 24.8171151,13.3411933 C24.667728,12.9307514 24.3676513,12.727646 23.9169013,12.7319086 Z"/></g></svg>

<svg xmlns="http://www.w3.org/2000/svg" xmlns:xlink="http://www.w3.org/1999/xlink" width="32" height="32" viewBox="0 0 32 32"><defs><linearGradient id="c" x1="50%" x2="50%" y1="0%" y2="100%"><stop offset="0%" stop-color="#FFF" stop-opacity=".5"/><stop offset="100%" stop-opacity=".5"/></linearGradient><filter id="a" width="111.7%" height="111.7%" x="-5.8%" y="-4.2%" filterUnits="objectBoundingBox"><feOffset dy=".5" in="SourceAlpha" result="shadowOffsetOuter1"/><feGaussianBlur in="shadowOffsetOuter1" result="shadowBlurOuter1" stdDeviation=".5"/><feComposite in="shadowBlurOuter1" in2="SourceAlpha" operator="out" result="shadowBlurOuter1"/><feColorMatrix in="shadowBlurOuter1" values="0 0 0 0 0 0 0 0 0 0 0 0 0 0 0 0 0 0 0.199473505 0"/></filter><circle id="b" cx="16" cy="15" r="15"/></defs><g fill="none"><use fill="#000" filter="url(#a)" xlink:href="#b"/><use fill="#004AB5" fill-rule="evenodd" xlink:href="#b"/><use fill="url(#c)" fill-rule="evenodd" style="mix-blend-mode:soft-light" xlink:href="#b"/><circle cx="16" cy="15" r="14.5" stroke="#000" stroke-linejoin="square" stroke-opacity=".097"/><path fill="#FFF" d="M12.703 7.307A8.207 8.207 0 1022.78 18.956l-7.182-3.97 2.914-7.672a8.206 8.206 0 00-5.809-.007zm.512 1.474a6.645 6.645 0 014.704.006l-2.36 6.212 5.816 3.215a6.645 6.645 0 11-8.16-9.433zm2.753-4.111c1.116.044 2.217.269 3.261.665L15.56 15l9.046 5a10.337 10.337 0 11-8.638-15.33zm7.057 3.573c.247 0 .478.03.69.09.624.171 1.046.559 1.266 1.163.133.367.162.726.087 1.08-.068.35-.23.665-.486.946.481-.02.903.086 1.265.32.36.228.624.575.794 1.043.241.661.168 1.266-.219 1.814-.382.538-1.065.986-2.05 1.344l-3.904 1.421-2.747-7.548 3.688-1.343c.604-.22 1.142-.33 1.616-.33zm-.572 1.562c-.224 0-.485.055-.781.162l-1.736.632.647 1.78 1.737-.632c.43-.157.73-.352.898-.584.168-.232.199-.495.091-.79-.107-.295-.298-.474-.573-.536a1.145 1.145 0 00-.283-.032zm1.464 2.927c-.236.002-.514.061-.832.177l-2.039.742.68 1.866 2.038-.742c.46-.168.777-.369.952-.603.183-.238.216-.514.101-.83-.15-.411-.45-.614-.9-.61z"/></g></svg>
